X:676
T:He Chased Her 'til She Caught Him
C:Sarah Gowan   2016
R:Reel
M:C|
K:Dmix
|:"D"A6G2| F2D2F2A2|"Am"c2B2c2d2| "D"A6B2|
"C"c2B2c2d2|1 "Am"A2G2F2A2|"D"A2G2F2A2| "C"G8:|2 "Am"c2B2c2d2|"D"f2d2A2d2| "C"c8||
|:"D"[f6d6][f2d2]|"C"[g6e6]g2|"Am"a2g2f2a2|"G"g2f2d2A2|
"D"[f4d4][f2d2][f2d2]|"C"[g6e6]g2|"Am"f2e2d2f2|"C"e6e2:|

